Newaita-dark/.DP/32/youtube-indicator-light-sync4.svg

<svg xmlns="http://www.w3.org/2000/svg" xmlns:xlink="http://www.w3.org/1999/xlink" width="32px" height="32px" viewBox="0 0 32 32" version="1.1">
<g id="surface1">
<path style=" stroke:none;fill-rule:nonzero;fill:rgb(93.333334%,93.333334%,93.333334%);fill-opacity:1;" d="M 23.449219 18.648438 C 23.246094 18.59375 23.019531 18.617188 22.824219 18.730469 C 22.773438 18.761719 22.726562 18.792969 22.683594 18.832031 C 21.730469 19.425781 20.988281 20.375 20.675781 21.546875 C 20.363281 22.71875 20.527344 23.910156 21.058594 24.902344 C 21.074219 24.957031 21.097656 25.007812 21.128906 25.058594 C 21.355469 25.453125 21.859375 25.589844 22.257812 25.359375 C 22.652344 25.128906 22.789062 24.628906 22.558594 24.230469 C 22.53125 24.183594 22.5 24.136719 22.464844 24.097656 C 22.144531 23.464844 22.050781 22.71875 22.253906 21.96875 C 22.453125 21.21875 22.910156 20.617188 23.503906 20.230469 C 23.550781 20.214844 23.601562 20.191406 23.648438 20.164062 C 24.046875 19.933594 24.183594 19.429688 23.953125 19.035156 C 23.839844 18.835938 23.652344 18.703125 23.449219 18.648438 Z M 23.449219 18.648438 "/>
<path style=" stroke:none;fill-rule:nonzero;fill:rgb(93.333334%,93.333334%,93.333334%);fill-opacity:1;" d="M 26.824219 26.835938 C 27.027344 26.890625 27.253906 26.867188 27.453125 26.753906 C 27.503906 26.722656 27.546875 26.691406 27.589844 26.652344 C 28.542969 26.054688 29.285156 25.109375 29.601562 23.9375 C 29.914062 22.765625 29.746094 21.574219 29.214844 20.578125 C 29.199219 20.527344 29.175781 20.476562 29.148438 20.425781 C 28.917969 20.027344 28.414062 19.894531 28.019531 20.121094 C 27.621094 20.351562 27.488281 20.855469 27.714844 21.253906 C 27.742188 21.300781 27.777344 21.347656 27.808594 21.386719 C 28.128906 22.015625 28.222656 22.765625 28.023438 23.515625 C 27.824219 24.261719 27.367188 24.863281 26.773438 25.253906 C 26.722656 25.269531 26.675781 25.292969 26.625 25.320312 C 26.230469 25.550781 26.09375 26.050781 26.324219 26.449219 C 26.4375 26.648438 26.621094 26.78125 26.824219 26.835938 Z M 26.824219 26.835938 "/>
<path style=" stroke:none;fill-rule:nonzero;fill:rgb(93.333334%,93.333334%,93.333334%);fill-opacity:1;" d="M 15.839844 5.816406 C 15.839844 5.816406 7.175781 5.816406 5.011719 6.386719 C 3.847656 6.707031 2.890625 7.664062 2.570312 8.847656 C 2 11.015625 2 15.507812 2 15.507812 C 2 15.507812 2 20.019531 2.570312 22.164062 C 2.890625 23.347656 3.824219 24.285156 5.011719 24.605469 C 7.199219 25.195312 15.839844 25.195312 15.839844 25.195312 C 15.839844 25.195312 17.984375 25.195312 20.410156 25.125 C 20.050781 24.410156 19.847656 23.601562 19.847656 22.742188 C 19.847656 19.808594 22.207031 17.449219 25.136719 17.449219 C 26.945312 17.449219 28.535156 18.347656 29.488281 19.722656 C 29.675781 17.679688 29.675781 15.527344 29.675781 15.527344 C 29.675781 15.527344 29.699219 11.015625 29.105469 8.847656 C 28.789062 7.664062 27.855469 6.730469 26.667969 6.410156 C 24.503906 5.816406 15.839844 5.816406 15.839844 5.816406 Z M 13.195312 10.441406 C 13.207031 10.441406 13.21875 10.441406 13.230469 10.441406 C 13.339844 10.441406 13.449219 10.472656 13.546875 10.53125 L 20.917969 14.886719 C 21.351562 15.144531 21.351562 15.777344 20.917969 16.035156 L 13.546875 20.386719 C 13.101562 20.652344 12.542969 20.332031 12.542969 19.816406 L 12.542969 11.105469 C 12.542969 10.738281 12.832031 10.445312 13.195312 10.441406 Z M 13.195312 10.441406 "/>
</g>
</svg>

<svg xmlns="http://www.w3.org/2000/svg" width="32" height="32"><g fill="#bdbdbd"><path d="M23.45 18.648a.822.822 0 0 0-.762.18 4.607 4.607 0 0 0-1.63 6.074.823.823 0 0 0 1.2.457.825.825 0 0 0 .207-1.261 2.962 2.962 0 0 1-.211-2.13A2.98 2.98 0 0 1 23.5 20.23a.826.826 0 0 0-.05-1.582zm0 0M26.824 26.836c.203.055.43.031.63-.086a.671.671 0 0 0 .136-.098 4.602 4.602 0 0 0 1.625-6.074.825.825 0 0 0-1.195-.453.825.825 0 0 0-.211 1.262c.32.629.414 1.379.214 2.129a2.997 2.997 0 0 1-1.25 1.738.823.823 0 0 0-.45 1.195c.114.2.298.332.501.387zm0 0"/><path d="M15.84 5.816s-8.664 0-10.832.57A3.545 3.545 0 0 0 2.57 8.853C2 11.016 2 15.508 2 15.508s0 4.512.57 6.656a3.466 3.466 0 0 0 2.438 2.438c2.191.593 10.832.593 10.832.593s2.144 0 4.57-.07a5.24 5.24 0 0 1-.566-2.383 5.282 5.282 0 0 1 5.293-5.293c1.808 0 3.398.899 4.351 2.27.188-2.04.188-4.188.188-4.188s.023-4.515-.57-6.68a3.465 3.465 0 0 0-2.438-2.44C24.5 5.815 15.84 5.815 15.84 5.815zm-2.645 4.622h.035c.114.003.22.039.317.093l7.367 4.356a.667.667 0 0 1 0 1.148l-7.367 4.352a.663.663 0 0 1-1.004-.575v-8.707a.67.67 0 0 1 .652-.668zm0 0"/></g></svg>
